X:1
T:Deildy Aberteifi (Cardigan Bower)
M:6/8
L:1/8
R:Jig
Z:andymclauchlin <andymclauchlin:hotmail.com> tradtunes 2002-1-31
K:D
dfe dAF | dfe dAF | Gee Gee | Ged cBA |
dfe dAF | dfe dAF | Gee Ged | cBc d3:||
fdf ecA | fdf ecA | Bcd efg | afd e3 |
fdf ecA | fdf ecA | Bcd efg | ABc d3:||
